img/fossa.svg

<svg fill="none" height="33" viewBox="0 0 149 33" width="149" xmlns="http://www.w3.org/2000/svg" xmlns:xlink="http://www.w3.org/1999/xlink"><clipPath id="a"><path d="m.942871.27002h148v32h-148z"/></clipPath><g clip-path="url(#a)" fill="#000"><path d="m18.4036 19.3984h-10.83446v11.6551c0 .2005-.07965.3928-.22145.5346s-.33412.2215-.53465.2215h-4.73027c-.20054 0-.39285-.0797-.53465-.2215s-.22146-.3341-.22146-.5346v-29.50663c.00481-.19732.08659-.38493.22787-.52277.14128-.137831.33086-.214955.52824-.214896h19.55733c.2006 0 .3928.079661.5347.221456.1417.1418.2215.33412.2215.53465v4.25079c0 .20054-.0798.39286-.2215.53466-.1419.1418-.3341.22145-.5347.22145h-14.07096v7.08149h10.83446c.2005 0 .3928.0798.5347.2215.1417.1419.2214.3341.2214.5347v4.2508c-.0048.1973-.0866.3849-.2278.5228-.1414.1378-.331.2149-.5283.2149z"/><path d="m43.1037.272058c2.077-.030485 4.1414.329208 6.0857 1.060392 1.6352.59668 3.1339 1.51537 4.4076 2.7017 1.1189 1.11401 2.0528 2.39961 2.7663 3.80819.712 1.33966 1.2393 2.76956 1.5674 4.25076.2928 1.3669.4412 2.7608.4427 4.1586-.0008 1.4192-.1491 2.8346-.4427 4.2231-.3256 1.4879-.853 2.9243-1.5674 4.2693-.7132 1.4087-1.6471 2.6944-2.7663 3.8082-1.2713 1.1828-2.7713 2.0928-4.4076 2.674-1.9476.717-4.0104 1.0702-6.0857 1.042-2.0904.0309-4.1688-.3223-6.1318-1.042-1.6364-.5811-3.1364-1.4911-4.4076-2.674-1.1369-1.1135-2.0921-2.3986-2.8308-3.8082-.7294-1.3412-1.2664-2.7784-1.5952-4.2693-.2937-1.3885-.442-2.8039-.4425-4.2231.0012-1.3978.1496-2.7917.4425-4.1586.3312-1.4843.8682-2.91501 1.5952-4.25076.7418-1.4101 1.7-2.69513 2.84-3.80819 1.2735-1.18653 2.7724-2.10525 4.4076-2.7017 1.9568-.732348 4.0335-1.092005 6.1226-1.060392zm0 26.205542c1.342.0189 2.6702-.2713 3.882-.8483 1.0112-.4632 1.9036-1.1506 2.6094-2.0101.6407-.822 1.1536-1.7359 1.5215-2.7109.338-.8522.5912-1.7355.7561-2.6372.1118-.6736.1703-1.355.1752-2.0378-.0049-.6829-.0634-1.3642-.1752-2.0378-.1638-.893-.4172-1.7673-.7561-2.6095-.362-.956-.8623-1.85382-1.4845-2.66482-.7138-.86224-1.6203-1.5445-2.6464-1.99169-1.2199-.54488-2.5464-.80955-3.882-.77455-1.3723-.02635-2.7332.25403-3.9834.82064-1.0156.43496-1.9154 1.1012-2.628 1.9456-.6213.81984-1.1242 1.72312-1.4937 2.68322-.3527.8375-.6064 1.7132-.7561 2.6095-.2068 1.3506-.2068 2.7249 0 4.0756.1517.8988.4053 1.7774.7561 2.6188.3692.9677.8753 1.8776 1.5031 2.7016.7122.8644 1.6148 1.5524 2.637 2.0101 1.2422.5716 2.5982.8523 3.965.8207z"/><path d="m70.5608 9.03269c.0123.47253.156.93232.4149 1.32781.3639.4678.8351.841 1.3739 1.088.6455.3381 1.1925.5963 1.6413.7746.4487.1783 1.2018.4426 2.2591.793l2.1669.7561c.4119.1474 1.0972.421 2.0563.8206.7383.2868 1.4483.6419 2.1207 1.0604.4549.3074 1.0236.7346 1.7058 1.2818.5967.4529 1.1007 1.0164 1.4846 1.6597.37.6483.661 1.3387.8668 2.0561.2232.8444.3042 1.7202.2397 2.5911-.0608 1.2436-.3936 2.4587-.9752 3.5596-.5815 1.1009-1.3975 2.0608-2.3904 2.812-2.2701 1.7436-5.0789 2.6373-7.9391 2.5265-3.9449.002-7.8321-.9469-11.3324-2.7662-.0869-.044-.1633-.1064-.2238-.1828-.0606-.0764-.1036-.1651-.1266-.2598-.0729-.1836-.0729-.3881 0-.5717l2.0379-3.8543c.0411-.0908.0996-.1725.1724-.2406.0728-.068.1584-.121.2517-.1559.09-.0396.1874-.0601.2859-.0601.0984 0 .1957.0205.2857.0601 2.5744 1.3275 5.4054 2.0824 8.2988 2.2129 1.1858.0447 2.3615-.2326 3.4024-.8021.405-.2152.7558-.5195 1.0256-.8901.27-.3707.4522-.7978.5328-1.2491.0974-.4816.0484-.9813-.1405-1.4349-.1891-.4535-.5093-.8402-.9199-1.11-1.188-.7994-2.4996-1.3975-3.882-1.7704-2.1881-.5934-4.3201-1.3771-6.3716-2.3422-3.0736-1.6536-4.6104-4.1124-4.6104-7.3766-.0594-1.23563.1582-2.46891.6368-3.60963.4786-1.14071 1.2062-2.15999 2.1295-2.98325 2.0332-1.68346 4.6196-2.551072 7.2568-2.434302 3.6867.087355 7.3144.944802 10.65 2.517282.0977.03382.1864.08936.2595.16247.073.07309.1285.16184.1622.25952.0338.09768.0448.20175.0326.30436-.0124.1026-.0479.20105-.1039.28793l-1.6413 3.85431c-.0344.09793-.0887.18772-.1594.26377-.0706.07604-.1562.13672-.2514.17824s-.1979.063-.3016.06311c-.1039.00009-.2067-.02119-.3019-.06252-2.4772-1.15037-5.1483-1.82595-7.8745-1.99169-2.711 0-4.1126.95896-4.2047 2.87689z"/><path d="m98.9785 9.03284c.0206.47526.1739.93525.4426 1.32776.364.4678.8349.841 1.3739 1.0881.646.3381 1.193.5963 1.641.7745.449.1783 1.202.4426 2.259.793l2.167.7561c.412.1476 1.098.4211 2.057.8207.738.2865 1.448.6414 2.12 1.0604.455.3073 1.024.7345 1.706 1.2817.597.4528 1.101 1.0163 1.485 1.6597.344.652.61 1.3422.793 2.0563.224.8443.304 1.72.24 2.591-.061 1.2436-.394 2.4586-.976 3.5595-.581 1.101-1.397 2.0609-2.39 2.8121-2.265 1.7394-5.067 2.633-7.921 2.5265-3.945.002-7.8319-.9469-11.3321-2.7663-.087-.044-.1634-.1064-.2239-.1828s-.1037-.1651-.1265-.2597c-.073-.1836-.073-.3881 0-.5718l2.0377-3.8542c.0452-.0892.1076-.1684.1835-.2334.076-.0649.1641-.1141.2592-.1448.09-.0396.1874-.06.2858-.06s.1958.0204.2858.06c2.5744 1.3275 5.4055 2.0825 8.2985 2.2131 1.179.044 2.348-.2299 3.384-.7931.41-.2167.765-.5249 1.037-.9006.271-.3757.453-.8089.531-1.2661.096-.4816.046-.9809-.142-1.4342-.189-.4533-.509-.84-.919-1.1108-1.182-.7972-2.487-1.3952-3.863-1.7704-2.188-.5933-4.3201-1.3771-6.3716-2.3421-3.0736-1.6536-4.6104-4.1125-4.6104-7.37666-.0595-1.23562.158-2.4689.6367-3.60961.4786-1.14072 1.2061-2.16 2.1294-2.98327 2.0328-1.68424 4.6199-2.551952 7.2569-2.434293 3.696.083235 7.334.940793 10.678 2.517283.097.03381.186.08936.259.16247.073.0731.129.16184.162.25952.034.09768.045.20176.033.30436s-.048.20106-.104.28794l-1.641 3.8543c-.035.09793-.089.18772-.16.26377-.07.07604-.156.13672-.251.17824s-.198.063-.302.06311c-.104.00009-.206-.02119-.302-.06252-2.485-1.15372-5.166-1.82938-7.902-1.9917-2.717 0-4.1185.95896-4.2045 2.8769z"/><path d="m134.875.81961 13.628 30.24429c.037.0777.056.1628.056.2489s-.019.1712-.056.2489c-.036.0767-.093.141-.165.1852-.072.0443-.155.0664-.24.0639h-5.532c-.23.0236-.46-.0347-.651-.1645-.191-.13-.329-.3232-.392-.5455l-2.673-6.5468h-9.692l-2.646 6.5099c-.071.2184-.213.4068-.404.5353-.19.1287-.418.1901-.647.1747h-5.616c-.084.0026-.168-.0196-.24-.0639-.072-.0441-.129-.1085-.165-.1851-.044-.0762-.071-.161-.079-.2485-.008-.0876.003-.1759.032-.2587l13.546-30.207312c.114-.130814.256-.234341.416-.302958.159-.068618.332-.10058.506-.093536.19-.024111.382.000486.559.071473.178.070985.335.186019.455.334243zm-.922 11.81189-2.766 6.9525h5.532z"/></g></svg>

<svg width="149" height="33" viewBox="0 0 149 33" fill="none" xmlns="http://www.w3.org/2000/svg">
<g clip-path="url(#clip0_3190_5798)">
<path d="M18.4036 19.3984H7.56914V31.0535C7.56914 31.254 7.48949 31.4463 7.34769 31.5881C7.20589 31.7299 7.01357 31.8096 6.81304 31.8096H2.08277C1.88223 31.8096 1.68992 31.7299 1.54812 31.5881C1.40632 31.4463 1.32666 31.254 1.32666 31.0535V1.54687C1.33147 1.34955 1.41325 1.16194 1.55453 1.0241C1.69581 0.886269 1.88539 0.809145 2.08277 0.809204H21.6401C21.8407 0.809204 22.0329 0.888865 22.1748 1.03066C22.3165 1.17246 22.3963 1.36478 22.3963 1.56531V5.8161C22.3963 6.01664 22.3165 6.20896 22.1748 6.35076C22.0329 6.49256 21.8407 6.57221 21.6401 6.57221H7.56914V13.6537H18.4036C18.6041 13.6537 18.7964 13.7335 18.9383 13.8752C19.08 14.0171 19.1597 14.2093 19.1597 14.4099V18.6607C19.1549 18.858 19.0731 19.0456 18.9319 19.1835C18.7905 19.3213 18.6009 19.3984 18.4036 19.3984Z" fill="black"/>
<path d="M43.1037 0.272058C45.1807 0.241573 47.2451 0.601266 49.1894 1.33245C50.8246 1.92913 52.3233 2.84782 53.597 4.03415C54.7159 5.14816 55.6498 6.43376 56.3633 7.84234C57.0753 9.182 57.6026 10.6119 57.9307 12.0931C58.2235 13.46 58.3719 14.8539 58.3734 16.2517C58.3726 17.6709 58.2243 19.0863 57.9307 20.4748C57.6051 21.9627 57.0777 23.3991 56.3633 24.7441C55.6501 26.1528 54.7162 27.4385 53.597 28.5523C52.3257 29.7351 50.8257 30.6451 49.1894 31.2263C47.2418 31.9433 45.179 32.2965 43.1037 32.2683C41.0133 32.2992 38.9349 31.946 36.9719 31.2263C35.3355 30.6452 33.8355 29.7352 32.5643 28.5523C31.4274 27.4388 30.4722 26.1537 29.7335 24.7441C29.0041 23.4029 28.4671 21.9657 28.1383 20.4748C27.8446 19.0863 27.6963 17.6709 27.6958 16.2517C27.697 14.8539 27.8454 13.46 28.1383 12.0931C28.4695 10.6088 29.0065 9.17809 29.7335 7.84234C30.4753 6.43224 31.4335 5.14721 32.5735 4.03415C33.847 2.84762 35.3459 1.9289 36.9811 1.33245C38.9379 0.600102 41.0146 0.240445 43.1037 0.272058ZM43.1037 26.4776C44.4457 26.4965 45.7739 26.2063 46.9857 25.6293C47.9969 25.1661 48.8893 24.4787 49.5951 23.6192C50.2358 22.7972 50.7487 21.8833 51.1166 20.9083C51.4546 20.0561 51.7078 19.1728 51.8727 18.2711C51.9845 17.5975 52.043 16.9161 52.0479 16.2333C52.043 15.5504 51.9845 14.8691 51.8727 14.1955C51.7089 13.3025 51.4555 12.4282 51.1166 11.586C50.7546 10.63 50.2543 9.73218 49.6321 8.92118C48.9183 8.05894 48.0118 7.37668 46.9857 6.92949C45.7658 6.38461 44.4393 6.11994 43.1037 6.15494C41.7314 6.12859 40.3705 6.40897 39.1203 6.97558C38.1047 7.41054 37.2049 8.07678 36.4923 8.92118C35.871 9.74102 35.3681 10.6443 34.9986 11.6044C34.6459 12.4419 34.3922 13.3176 34.2425 14.2139C34.0357 15.5645 34.0357 16.9388 34.2425 18.2895C34.3942 19.1883 34.6478 20.0669 34.9986 20.9083C35.3678 21.876 35.8739 22.7859 36.5017 23.6099C37.2139 24.4743 38.1165 25.1623 39.1387 25.62C40.3809 26.1916 41.7369 26.4723 43.1037 26.4407V26.4776Z" fill="black"/>
<path d="M70.5608 9.03269C70.5731 9.50522 70.7168 9.96501 70.9757 10.3605C71.3396 10.8283 71.8108 11.2015 72.3496 11.4485C72.9951 11.7866 73.5421 12.0448 73.9909 12.2231C74.4396 12.4014 75.1927 12.6657 76.25 13.0161L78.4169 13.7722C78.8288 13.9196 79.5141 14.1932 80.4732 14.5928C81.2115 14.8796 81.9215 15.2347 82.5939 15.6532C83.0488 15.9606 83.6175 16.3878 84.2997 16.935C84.8964 17.3879 85.4004 17.9514 85.7843 18.5947C86.1543 19.243 86.4453 19.9334 86.6511 20.6508C86.8743 21.4952 86.9553 22.371 86.8908 23.2419C86.83 24.4855 86.4972 25.7006 85.9156 26.8015C85.3341 27.9024 84.5181 28.8623 83.5252 29.6135C81.2551 31.3571 78.4463 32.2508 75.5861 32.14C71.6412 32.142 67.754 31.1931 64.2537 29.3738C64.1668 29.3298 64.0904 29.2674 64.0299 29.191C63.9693 29.1146 63.9263 29.0259 63.9033 28.9312C63.8304 28.7476 63.8304 28.5431 63.9033 28.3595L65.9412 24.5052C65.9823 24.4144 66.0408 24.3327 66.1136 24.2646C66.1864 24.1966 66.272 24.1436 66.3653 24.1087C66.4553 24.0691 66.5527 24.0486 66.6512 24.0486C66.7496 24.0486 66.8469 24.0691 66.9369 24.1087C69.5113 25.4362 72.3423 26.1911 75.2357 26.3216C76.4215 26.3663 77.5972 26.089 78.6381 25.5195C79.0431 25.3043 79.3939 25 79.6637 24.6294C79.9337 24.2587 80.1159 23.8316 80.1965 23.3803C80.2939 22.8987 80.2449 22.399 80.056 21.9454C79.8669 21.4919 79.5467 21.1052 79.1361 20.8354C77.9481 20.036 76.6365 19.4379 75.2541 19.065C73.066 18.4716 70.934 17.6879 68.8825 16.7228C65.8089 15.0692 64.2721 12.6104 64.2721 9.3462C64.2127 8.11057 64.4303 6.87729 64.9089 5.73657C65.3875 4.59586 66.1151 3.57658 67.0384 2.75332C69.0716 1.06986 71.658 0.202248 74.2952 0.319018C77.9819 0.406373 81.6096 1.26382 84.9452 2.8363C85.0429 2.87012 85.1316 2.92566 85.2047 2.99877C85.2777 3.07186 85.3332 3.16061 85.3669 3.25829C85.4007 3.35597 85.4117 3.46004 85.3995 3.56265C85.3871 3.66525 85.3516 3.7637 85.2956 3.85058L83.6543 7.70489C83.6199 7.80282 83.5656 7.89261 83.4949 7.96866C83.4243 8.0447 83.3387 8.10538 83.2435 8.1469C83.1483 8.18842 83.0456 8.2099 82.9419 8.21001C82.838 8.2101 82.7352 8.18882 82.64 8.14749C80.1628 6.99712 77.4917 6.32154 74.7655 6.1558C72.0545 6.1558 70.6529 7.11476 70.5608 9.03269Z" fill="black"/>
<path d="M98.9785 9.03284C98.9991 9.5081 99.1524 9.96809 99.4211 10.3606C99.7851 10.8284 100.256 11.2016 100.795 11.4487C101.441 11.7868 101.988 12.045 102.436 12.2232C102.885 12.4015 103.638 12.6658 104.695 13.0162L106.862 13.7723C107.274 13.9199 107.96 14.1934 108.919 14.593C109.657 14.8795 110.367 15.2344 111.039 15.6534C111.494 15.9607 112.063 16.3879 112.745 16.9351C113.342 17.3879 113.846 17.9514 114.23 18.5948C114.574 19.2468 114.84 19.937 115.023 20.6511C115.247 21.4954 115.327 22.3711 115.263 23.2421C115.202 24.4857 114.869 25.7007 114.287 26.8016C113.706 27.9026 112.89 28.8625 111.897 29.6137C109.632 31.3531 106.83 32.2467 103.976 32.1402C100.031 32.1422 96.1441 31.1933 92.6439 29.3739C92.5569 29.3299 92.4805 29.2675 92.42 29.1911C92.3595 29.1147 92.3163 29.026 92.2935 28.9314C92.2205 28.7478 92.2205 28.5433 92.2935 28.3596L94.3312 24.5054C94.3764 24.4162 94.4388 24.337 94.5147 24.272C94.5907 24.2071 94.6788 24.1579 94.7739 24.1272C94.8639 24.0876 94.9613 24.0672 95.0597 24.0672C95.1581 24.0672 95.2555 24.0876 95.3455 24.1272C97.9199 25.4547 100.751 26.2097 103.644 26.3403C104.823 26.3843 105.992 26.1104 107.028 25.5472C107.438 25.3305 107.793 25.0223 108.065 24.6466C108.336 24.2709 108.518 23.8377 108.596 23.3805C108.692 22.8989 108.642 22.3996 108.454 21.9463C108.265 21.493 107.945 21.1063 107.535 20.8355C106.353 20.0383 105.048 19.4403 103.672 19.0651C101.484 18.4718 99.3519 17.688 97.3004 16.723C94.2268 15.0694 92.69 12.6105 92.69 9.34634C92.6305 8.11072 92.848 6.87744 93.3267 5.73673C93.8053 4.59601 94.5328 3.57673 95.4561 2.75346C97.4889 1.06922 100.076 0.201508 102.713 0.319167C106.409 0.402402 110.047 1.25996 113.391 2.83645C113.488 2.87026 113.577 2.92581 113.65 2.99892C113.723 3.07202 113.779 3.16076 113.812 3.25844C113.846 3.35612 113.857 3.4602 113.845 3.5628C113.833 3.6654 113.797 3.76386 113.741 3.85074L112.1 7.70504C112.065 7.80297 112.011 7.89276 111.94 7.96881C111.87 8.04485 111.784 8.10553 111.689 8.14705C111.594 8.18857 111.491 8.21005 111.387 8.21016C111.283 8.21025 111.181 8.18897 111.085 8.14764C108.6 6.99392 105.919 6.31826 103.183 6.15594C100.466 6.15594 99.0645 7.1149 98.9785 9.03284Z" fill="black"/>
<path d="M134.875 0.81961L148.503 31.0639C148.54 31.1416 148.559 31.2267 148.559 31.3128C148.559 31.3989 148.54 31.484 148.503 31.5617C148.467 31.6384 148.41 31.7027 148.338 31.7469C148.266 31.7912 148.183 31.8133 148.098 31.8108H142.566C142.336 31.8344 142.106 31.7761 141.915 31.6463C141.724 31.5163 141.586 31.3231 141.523 31.1008L138.85 24.554H129.158L126.512 31.0639C126.441 31.2823 126.299 31.4707 126.108 31.5992C125.918 31.7279 125.69 31.7893 125.461 31.7739H119.845C119.761 31.7765 119.677 31.7543 119.605 31.71C119.533 31.6659 119.476 31.6015 119.44 31.5249C119.396 31.4487 119.369 31.3639 119.361 31.2764C119.353 31.1888 119.364 31.1005 119.393 31.0177L132.939 0.810388C133.053 0.679574 133.195 0.576047 133.355 0.50743C133.514 0.438812 133.687 0.40685 133.861 0.413894C134.051 0.389783 134.243 0.41438 134.42 0.485367C134.598 0.556352 134.755 0.671386 134.875 0.81961ZM133.953 12.6315L131.187 19.584H136.719L133.953 12.6315Z" fill="black"/>
</g>
<defs>
<clipPath id="clip0_3190_5798">
<rect width="148" height="32" fill="white" transform="translate(0.942871 0.27002)"/>
</clipPath>
</defs>
</svg>
